X: 19840
T: Jerry's Pipe
R: jig
M: 6/8
K: Amixolydian
|:edB AAA|eee efg|edB cAc|BGG Bcd|
edB A3|ABc e2f|gaa age|edB BAA:|
|:eaa eaa|dBd egg|eag f2d|edB Bdd|
eaa eaa|dBd egg|gaa age|edB BAA:|

